Mindful/img/counters-image/leads.svg

<svg width="49" height="48" viewBox="0 0 49 48" fill="none" xmlns="http://www.w3.org/2000/svg">
<g clip-path="url(#clip0)">
<path d="M16.0641 33.9949C15.253 33.1802 15.6758 33.4099 13.7196 32.8839C12.832 32.6449 12.0517 32.1855 11.3461 31.6352L7.11157 42.0639C6.70184 43.0736 7.46717 44.1705 8.55171 44.1292L13.4694 43.9408L16.8518 47.5296C17.5985 48.3208 18.9089 48.0742 19.3186 47.0646L24.1766 35.1002C23.1649 35.6664 22.0421 35.9983 20.881 35.9983C19.061 35.9983 17.3512 35.2867 16.0641 33.9949ZM42.7276 42.0639L38.493 31.6352C37.7874 32.1864 37.0072 32.6449 36.1196 32.8839C34.153 33.4127 34.5842 33.1821 33.775 33.9949C32.488 35.2867 30.7772 35.9983 28.9572 35.9983C27.7961 35.9983 26.6733 35.6655 25.6616 35.1002L30.5196 47.0646C30.9293 48.0742 32.2406 48.3208 32.9864 47.5296L36.3697 43.9408L41.2874 44.1292C42.372 44.1705 43.1373 43.0727 42.7276 42.0639ZM31.5462 31.8733C32.9724 30.4155 33.1357 30.5411 35.1666 29.9852C36.463 29.6299 37.4766 28.5939 37.8238 27.2683C38.522 24.6058 38.3409 24.9274 40.2458 22.9792C41.195 22.0089 41.5656 20.5942 41.2184 19.2686C40.5212 16.608 40.5202 16.9792 41.2184 14.3158C41.5656 12.9902 41.195 11.5755 40.2458 10.6052C38.3409 8.65706 38.522 8.97769 37.8238 6.31613C37.4766 4.9905 36.463 3.95456 35.1666 3.59925C32.5645 2.88581 32.8781 3.07238 30.9713 1.12331C30.0221 0.153002 28.638 -0.226685 27.3416 0.128627C24.7404 0.841127 25.1034 0.842064 22.4976 0.128627C21.2012 -0.226685 19.817 0.152065 18.8678 1.12331C16.9629 3.07144 17.2765 2.88581 14.6734 3.59925C13.377 3.95456 12.3634 4.9905 12.0162 6.31613C11.319 8.97769 11.4992 8.65706 9.59424 10.6052C8.64504 11.5755 8.27357 12.9902 8.62171 14.3158C9.31891 16.9746 9.31984 16.6033 8.62171 19.2677C8.27451 20.5933 8.64504 22.008 9.59424 22.9792C11.4992 24.9274 11.3181 24.6058 12.0162 27.2683C12.3634 28.5939 13.377 29.6299 14.6734 29.9852C16.7622 30.5571 16.9181 30.4671 18.2929 31.8733C19.5277 33.1361 21.4513 33.3621 22.9353 32.4189C23.5287 32.0405 24.2171 31.8396 24.92 31.8396C25.623 31.8396 26.3113 32.0405 26.9048 32.4189C28.3878 33.3621 30.3114 33.1361 31.5462 31.8733ZM16.1145 16.4946C16.1145 11.523 20.0569 7.49269 24.9196 7.49269C29.7822 7.49269 33.7246 11.523 33.7246 16.4946C33.7246 21.4661 29.7822 25.4964 24.9196 25.4964C20.0569 25.4964 16.1145 21.4661 16.1145 16.4946Z" fill="#FF7761"/>
</g>
<defs>
<clipPath id="clip0">
<rect width="35.84" height="48" fill="white" transform="translate(7)"/>
</clipPath>
</defs>
</svg>

<svg width="49" height="48" fill="none" xmlns="http://www.w3.org/2000/svg"><g clip-path="url(#clip0)"><path d="M16.064 33.995c-.811-.815-.388-.585-2.344-1.111-.888-.24-1.668-.699-2.374-1.249L7.112 42.064a1.499 1.499 0 001.44 2.065l4.917-.188 3.383 3.589a1.49 1.49 0 002.467-.465L24.177 35.1c-1.012.566-2.135.898-3.296.898-1.82 0-3.53-.711-4.817-2.003zm26.664 8.069l-4.235-10.429c-.706.551-1.486 1.01-2.373 1.249-1.967.529-1.536.298-2.345 1.11a6.756 6.756 0 01-4.818 2.004c-1.16 0-2.284-.332-3.295-.898l4.858 11.965a1.49 1.49 0 002.466.465l3.384-3.59 4.917.19a1.5 1.5 0 001.44-2.066zm-11.182-10.19c1.426-1.458 1.59-1.333 3.62-1.889a3.802 3.802 0 002.658-2.717c.698-2.662.517-2.34 2.422-4.289a3.898 3.898 0 00.972-3.71c-.697-2.661-.698-2.29 0-4.953a3.901 3.901 0 00-.972-3.71c-1.905-1.949-1.724-1.628-2.422-4.29A3.802 3.802 0 0035.167 3.6c-2.602-.713-2.289-.527-4.196-2.476a3.703 3.703 0 00-3.63-.994c-2.6.712-2.238.713-4.843 0a3.7 3.7 0 00-3.63.994c-1.905 1.948-1.591 1.763-4.195 2.476a3.802 3.802 0 00-2.657 2.717c-.697 2.662-.517 2.341-2.422 4.29a3.899 3.899 0 00-.972 3.71c.697 2.659.698 2.287 0 4.952a3.903 3.903 0 00.972 3.711c1.905 1.948 1.724 1.627 2.422 4.29a3.802 3.802 0 002.657 2.716c2.09.572 2.245.482 3.62 1.888a3.697 3.697 0 004.642.546 3.691 3.691 0 013.97 0 3.696 3.696 0 004.641-.546zm-15.431-15.38c0-4.971 3.942-9.001 8.805-9.001 4.862 0 8.805 4.03 8.805 9.002 0 4.971-3.943 9.001-8.805 9.001-4.863 0-8.806-4.03-8.806-9.001z" fill="#FF7761"/></g><defs><clipPath id="clip0"><path fill="#fff" transform="translate(7)" d="M0 0h35.84v48H0z"/></clipPath></defs></svg>
